packages/ui-icons/svg/Solid/email.svg

<svg viewBox="0 0 1920 1920" version="1.1" xmlns="http://www.w3.org/2000/svg">
    <path d="M1920,428.265749 L1920,1617.80519 L1455.83907,1037.66049 L1367.6372,1108.24457 L1836.31551,1694.14893 L83.6844891,1694.14893 L552.362802,1108.24457 L464.160932,1037.66049 L0,1617.80519 L0,428.265749 L959.943533,1260.70619 L1920,428.265749 Z M1919.93224,226 L1919.93224,278.627493 L959.988707,1111.06794 L0.0451738133,278.627493 L0.0451738133,226 L1919.93224,226 Z" stroke="none" stroke-width="1" fill-rule="evenodd"/>
</svg>

<svg viewBox="0 0 1920 1920" xmlns="http://www.w3.org/2000/svg">
    <path d="M1920 428.266v1189.54l-464.16-580.146-88.203 70.585 468.679 585.904H83.684l468.679-585.904-88.202-70.585L0 1617.805V428.265l959.944 832.441L1920 428.266ZM1919.932 226v52.627l-959.943 832.44L.045 278.628V226h1919.887Z" fill-rule="evenodd"/>
</svg>
